X: 1
T: The Garden of Butterflies
M: 6/8
L: 1/8
R: jig
K: Dmin
ABA D3| ABA dcA|GEE cEE|GEE DEG|ABA D3|
ABA dcA|GEE cEE|1EDC D(3EFG:|2EDC DFA||
ddc A=Bc|~d3 dcA|GEE cEE|GEE DFA|
ddc A=Bc|~d3 dcA|GEE cEE|1EDC DFA:|2EDC D3||
